X:10
T:Paddy Murpy's Wife
T:aka Mr. Menzie of Culdare, Joe Tanzy's, Pat Carney's
C:Niel Gow
R:reel
D:Snug in the Blanket,P.O'Brien,J.Gans,D.Sproule
O:1st two turns arranged P. O'Brien (Nenagh) third turn by P. O'Brien (Offaly)
Z:Paul Stewart Cranford (P.S.C.), <http://www.cranfordpub.com>
L:1/8
Q:333
M:C|
K:Dmix
FDAD BDAF|G2 cG ECAG|FDAD BDAF|Adde dBAG|
FDDA BAFA|G2 cG ECAG|FDAD BDAF|Add^c d3||
||e|fada fdaf|egcg ecag|fada fded|dcAG FDDe|
fada fdaf|egcg ecag|fada ABce|gecd ed (3(efg)||
||a3 f dafa|g2 eg cgeg|abaf dafa|gecd ed (3(efg)|
abaf dafa|g2 eg cgeg|af (3(gfe) fdec|dBAG FDDE|]
